X:2
T:Tv slngpolskor efter John-Erik Mattson, Rtan
M:3/4
L:1/8
Q:1/4=150
R:sydjmtsk slngpolska
O:Sweden
A:Rtan, s. Jmtland
N:De frsta tv polskor John-Erik lrde sig
N:(The first two polskas John-Erik learnt)
Z:Lennart Sohlman, lta, Sweden
K:D
T: Nr 1 \
"D"a^g/a/ b>a (f>d) | "A"(3fgf (e>d) e>f | "A7"(3gfg (a>g) e>c |  "D"(cd) db a2 |
| "D"a^g/a/ b>a (f>d) | "A"(3fgf (e>d) e>f | "A7"(3gfg (a>g) e>c | "D"(cd) d4 :|
 |: "D"f2 Af Af | {g}f>e (e>d) e>f | "G"g2 Bg Bg | "D"(gb) a^g (a2 |
| "D"f2) Af Af | {g}f>e e>d e>f | "A7"(3gfg (a>g) e>c | "D"(cd) d4 :|
T:  Nr 2 \
|: "D"f2 (fg) eg | "D"(fd) (dF) Ad | "A"(dc) (ce) Ac | "D"(cd) (dF) Ad |
| "D"(df) (fg) eg | "D"(fd) (dF) Ad | "A7"(dc) (ce) Ac | "D"(cd) d4 :|
|: "D"f2 {g}(3fef df | "G"g2 {a}(3gfg b2 | "A7"c2 ce ac | "D"(cd) df a2 |
| "D"f2 {g}(3fef df | "G"g2 {a}(3gfg b2 | "A7"c2 ce ac | "D"(cd) d4 :|
